X: 9029
T: Da Burn O Couster
R: slip jig
M: 9/8
K: Amajor
M:6/8
|:A2c edc|BcA B2c|EFA B2c|Ace dcB|
A2e- edc|BcA B2c|edc dcB:|
c3 BcA-|AGF E3-|EAE BEc|d2c BAF|
c3 BcA-|AGF E2D|CDE Aed|
c3 BcA-|AGF E3-|EAE BEc|d2c BAF|
c3 Bce|edc dAF|EFA Bed|cBA d3||


